X: 2435
T: Ballinamore, The
R: reel
M: 4/4
K: Edorian
|:G2BG E2AG|FDFA dAFA|G2BG EFGA|1 BGAF GEEF:|2 BGAF GE E2||
eB~B2 eBge|fede fgaf|eB~B2 bgaf|gfe^d efgf|
eB~B2 eBge|fede fgaf|eB~B2 =cBFD|d3e fdAF||

